storage/app/icons/phosphoricons/duotone/calendar-x-duotone.svg

<svg xmlns="http://www.w3.org/2000/svg" fill="currentColor" viewBox="0 0 256 256"><path d="M216 48v40H40V48a8 8 0 0 1 8-8h160a8 8 0 0 1 8 8" opacity=".2"/><path d="M208 32h-24v-8a8 8 0 0 0-16 0v8H88v-8a8 8 0 0 0-16 0v8H48a16 16 0 0 0-16 16v160a16 16 0 0 0 16 16h160a16 16 0 0 0 16-16V48a16 16 0 0 0-16-16M72 48v8a8 8 0 0 0 16 0v-8h80v8a8 8 0 0 0 16 0v-8h24v32H48V48Zm136 160H48V96h160zm-50.34-74.34L139.31 152l18.35 18.34a8 8 0 0 1-11.32 11.32L128 163.31l-18.34 18.35a8 8 0 0 1-11.32-11.32L116.69 152l-18.35-18.34a8 8 0 0 1 11.32-11.32L128 140.69l18.34-18.35a8 8 0 0 1 11.32 11.32"/></svg>

<svg xmlns="http://www.w3.org/2000/svg" viewBox="0 0 256 256" fill="currentColor"><path d="M216,48V88H40V48a8,8,0,0,1,8-8H208A8,8,0,0,1,216,48Z" opacity="0.2"/><path d="M208,32H184V24a8,8,0,0,0-16,0v8H88V24a8,8,0,0,0-16,0v8H48A16,16,0,0,0,32,48V208a16,16,0,0,0,16,16H208a16,16,0,0,0,16-16V48A16,16,0,0,0,208,32ZM72,48v8a8,8,0,0,0,16,0V48h80v8a8,8,0,0,0,16,0V48h24V80H48V48ZM208,208H48V96H208V208Zm-50.34-74.34L139.31,152l18.35,18.34a8,8,0,0,1-11.32,11.32L128,163.31l-18.34,18.35a8,8,0,0,1-11.32-11.32L116.69,152,98.34,133.66a8,8,0,0,1,11.32-11.32L128,140.69l18.34-18.35a8,8,0,0,1,11.32,11.32Z"/></svg>
